img/recomendation/10.svg

<svg width="44" height="44" viewBox="0 0 44 44" fill="none" xmlns="http://www.w3.org/2000/svg">
<g id="openmoji:pot-of-food">
<path id="Vector" d="M4.27778 22C4.27778 31.7882 12.2118 39.7222 22 39.7222C31.7882 39.7222 39.7222 31.7882 39.7222 22H4.27778Z" fill="#13023E"/>
<path id="Vector_2" d="M29.9444 22C29.9444 31.7876 27.5 39.7222 22 39.7222C31.7882 39.7222 39.7222 31.7876 39.7222 22H29.9444Z" fill="#130536"/>
<path id="Vector_3" d="M4.27778 15.3639L8.55556 19.6417M17.7485 4.79477C17.8067 5.50561 18.114 6.17308 18.6163 6.67944C19.1891 7.25244 19.5109 8.02949 19.5109 8.83972C19.5109 9.64994 19.1891 10.427 18.6163 11C18.0434 11.573 17.7217 12.3501 17.7217 13.1603C17.7217 13.9705 18.0434 14.7476 18.6163 15.3206C19.1891 15.8936 19.5109 16.6706 19.5109 17.4808C19.5109 18.2911 19.1891 19.0681 18.6163 19.6411M21.1261 4.29977C21.065 5.15411 21.3473 6.02677 22 6.67944C22.5728 7.25244 22.8946 8.02949 22.8946 8.83972C22.8946 9.64994 22.5728 10.427 22 11C21.4272 11.573 21.1054 12.3501 21.1054 13.1603C21.1054 13.9705 21.4272 14.7476 22 15.3206C22.5728 15.8936 22.8946 16.6706 22.8946 17.4808C22.8946 18.2911 22.5728 19.0681 22 19.6411M24.4506 4.45072C24.4395 4.86308 24.5126 5.27338 24.6654 5.65656C24.8181 6.03974 25.0474 6.38778 25.3391 6.67944C25.9119 7.25244 26.2337 8.02949 26.2337 8.83972C26.2337 9.64994 25.9119 10.427 25.3391 11C24.7663 11.573 24.4445 12.3501 24.4445 13.1603C24.4445 13.9705 24.7663 14.7476 25.3391 15.3206C25.9119 15.8936 26.2337 16.6706 26.2337 17.4808C26.2337 18.2911 25.9119 19.0681 25.3391 19.6411M4.27778 22C4.27778 31.7882 12.2118 39.7222 22 39.7222C31.7882 39.7222 39.7222 31.7882 39.7222 22H4.27778Z" stroke="#13023E" stroke-width="2" stroke-miterlimit="10" stroke-linecap="round" stroke-linejoin="round"/>
</g>
</svg>

<svg width="44" height="44" viewBox="0 0 44 44" fill="none" xmlns="http://www.w3.org/2000/svg"><g id="openmoji:pot-of-food"><path id="Vector" d="M4.278 22c0 9.788 7.934 17.722 17.722 17.722S39.722 31.788 39.722 22H4.278z" fill="#13023E"/><path id="Vector_2" d="M29.944 22c0 9.788-2.444 17.722-7.944 17.722 9.788 0 17.722-7.934 17.722-17.722h-9.778z" fill="#130536"/><path id="Vector_3" d="M4.278 15.364l4.278 4.278m9.193-14.847c.058.71.365 1.378.867 1.884a3.056 3.056 0 010 4.321 3.055 3.055 0 000 4.32 3.056 3.056 0 010 4.321M21.126 4.3A3.034 3.034 0 0022 6.68 3.056 3.056 0 0122 11a3.056 3.056 0 000 4.32 3.056 3.056 0 010 4.321m2.45-15.19a3.035 3.035 0 00.89 2.228 3.056 3.056 0 010 4.321 3.056 3.056 0 000 4.32 3.056 3.056 0 010 4.321M4.277 22c0 9.788 7.934 17.722 17.722 17.722S39.722 31.788 39.722 22H4.278z" stroke="#13023E" stroke-width="2" stroke-miterlimit="10" stroke-linecap="round" stroke-linejoin="round"/></g></svg>
